!!!COM: Bach, Johann Sebastian
!!!OPR: Joh. Seb. Bachs vierstimmige Choralgesänge
!!!XEN: Four-part Chorales
!!!OTL: 56. Es steh'n vor Gottes Throne
!!!SCT: BWV 309
!!!SCA: Thematisch-systematisches Verzeichnis der musikalischen Werke Johann Sebastian Bach: Bach-Werke-Verzeichnis (Schmieder)
!!!YOR: Bach Gesellschaft Edition xxxix
!!!ENC: Steven Rasmussen
!!!CDT: 1685/3//-1750/7/28/
!!!OCY: Deutschland
!!!YEC: Copyright (c) 1994, 2000 Center for Computer Assisted Research in the Humanities
!!!YEM: Rights to all derivative editions reserved
!!!YEN: United States of America
**kern	**kern	**kern	**kern	**silbe
*I:[BASSO]	*I:[TENORE]	*I:[ALTO]	*I:[SOPRANO]	*I:[SOPRANO]
*>[A,A,B]	*>[A,A,B]	*>[A,A,B]	*>[A,A,B]	*
*>A	*>A	*>A	*>A	*
*clefF4	*clefGv2	*clefG2	*clefG2	*
*k[b-]	*k[b-]	*k[b-]	*k[b-]	*
*d:	*d:	*d:	*d:	*
*M4/4	*M4/4	*M4/4	*M4/4	*
4GG	4B-	4d	4g	Esder
=1	=1	=1	=1	=1
8GGL	4d	4g	4b-	steh'nin
8AAJ	.	.	.	.
8BB-L	4B-	4d	4g	vorsei'm
8CJ	.	.	.	.
4D	4A	8dL	4f#	Got-lie-
.	.	8cJ	.	.
8E-L	4G	4B-	4g	-tes-ben
8DJ	.	.	.	.
=2	=2	=2	=2	=2
4C	4.G	4e-	2a	Thro-Soh-
4D	.	4d	.	.
.	8F#	.	.	.
4GG;	4G;	4d;	4b-;	-ne,-ne,
4G	4d	4g	4b-	esder
=3	=3	=3	=3	=3
4D	4d	8gL	4a	steh'nin
.	.	8f#J	.	.
8GL	4d	4g	4b-	vorsei'm
8FJ	.	.	.	.
8EL	8eL	8gL	4cc	Got-lie-
8AJ	8cJ	8eJ	.	.
8F#L	8dL	8dL	4a	-tes-ben
8DJ	8cJ	8f#J	.	.
=4	=4	=4	=4	=4
4G	8B-L	4d	2b-	Thro-Soh-
.	8AJ	.	.	.
4C#	4G	4e	.	.
4D;	4d;	4f#;	4a;	-ne,-ne,
4GG	4d	4g	4b-	dieliebt
=5	=5	=5	=5	=5
4C	8e-L	8gL	4a	un-al-
.	8AJ	8f#J	.	.
4C#	4B-	4e	4g	-sre-ler
4D	8B-L	4d	4g	WÃ¤ch-Men-
.	16AL	.	.	.
.	16GJJ	.	.	.
4DD	4A	4d	4f#	-ter-schen
=6	=6	=6	=6	=6
2.GG;	2.B-;	2.d;	2.g;	sind,Kind,
=:|!	=:|!	=:|!	=:|!	=:|!
*>B	*>B	*>B	*>B	*
4GG	4d	4g	4b-	dass
=7	=7	=7	=7	=7
8GGL	4d	4g	4b-	er
8AAJ	.	.	.	.
8BB-L	4d	4g	4b-	auch
8CJ	.	.	.	.
4D	4d	8gL	4a	nicht
.	.	8fJ	.	.
4BB-	4d	4f	4b-	der
=8	=8	=8	=8	=8
2E-	8dL	8fL	2g	Ei-
.	16cL	16e-L	.	.
.	16B-JJ	16dJJ	.	.
.	8AL	4c	.	.
.	8GJ	.	.	.
4D;	4A;	4d;	4f#;	-nes
4G	8GL	4d	4b-	ver-
.	8AJ	.	.	.
=9	=9	=9	=9	=9
8GL	8B-L	8eL	4b-	-acht'
8FJ	8dJ	8fJ	.	.
8EL	4c	4g	4b-	will
8CJ	.	.	.	.
8FL	4c	4g	4a	hab'n
8E-J	.	.	.	.
8DL	4d	4f	4b-	so
8BB-J	.	.	.	.
=10	=10	=10	=10	=10
8E-L	4B-	8fL	2g	Klei-
8D	.	16e-L	.	.
.	.	16dJJ	.	.
8C	4A	4e-	.	.
8AAJ	.	.	.	.
4D;	4A;	4d;	4f#;	-nes,
4En	4c	4g	4g	als
=11	=11	=11	=11	=11
4F	8cL	4f	8aL	je-
.	8dJ	.	8bnJ	.
8E-L	4e-	8gL	4cc	-mals
8FJ	.	8a-J	.	.
4G	8dL	4g	4cc	ist
.	8cJ	.	.	.
4GG	4d	4g	4b	ge-
=12	=12	=12	=12	=12
4C;	4e-;	4g;	4cc;	-bor'n,
4C#	4en	4g	4a	als
8DL	4d	8f#L	4b-	je-
8EJ	.	8gJ	.	.
4F#	8dL	4a	4a	-mals
.	8cJ	.	.	.
=13	=13	=13	=13	=13
8GL	4B-	8dL	4g	ist
8CJ	.	8e-J	.	.
4D	8AL	4d	4f#	ge-
.	8cJ	.	.	.
4GG;	4Bn;	4d;	4g;	-bor'n.
==|!	==|!	==|!	==|!	==|!
*-	*-	*-	*-	*-
!!!RWG: Key is interpreted using the Humdrum key tool.
!!!END: 1994/05/25
!!!EMD: Converted from MuseData to Humdrum Dec 19, 2000, by Andreas Kornstaedt using muse2kern.
!!!EED: Craig Stuart Sapp
!!!EEV: 2024/03/31
!!!ONB: Some non-unicode characters
